imgs/interview.svg

<svg width="59" height="59" viewBox="0 0 59 59" fill="none" xmlns="http://www.w3.org/2000/svg">
<path d="M36.5717 14.429C34.6963 12.5537 32.1528 11.5001 29.5007 11.5001C26.8486 11.5001 24.305 12.5537 22.4297 14.429" stroke="#62D5B4" stroke-width="3" stroke-miterlimit="10" stroke-linecap="square"/>
<path d="M43.6414 7.35797C39.8907 3.60733 34.8037 1.50024 29.4994 1.50024C24.1952 1.50024 19.1081 3.60733 15.3574 7.35797" stroke="#62D5B4" stroke-width="3" stroke-miterlimit="10" stroke-linecap="square"/>
<path d="M1.5 13.5C5.74346 13.5 9.81313 15.1857 12.8137 18.1863C15.8143 21.1869 17.5 25.2565 17.5 29.5V31.5L21.5 40.5L17.5 42.5V45.5C17.5 47.0913 16.8679 48.6174 15.7426 49.7426C14.6174 50.8679 13.0913 51.5 11.5 51.5H5.5V57.5" stroke="#62D5B4" stroke-width="3" stroke-miterlimit="10" stroke-linecap="square"/>
<path d="M57.5 13.5C53.2565 13.5 49.1869 15.1857 46.1863 18.1863C43.1857 21.1869 41.5 25.2565 41.5 29.5V31.5L37.5 40.5L41.5 42.5V45.5C41.5 47.0913 42.1321 48.6174 43.2574 49.7426C44.3826 50.8679 45.9087 51.5 47.5 51.5H53.5V57.5" stroke="#62D5B4" stroke-width="3" stroke-miterlimit="10" stroke-linecap="square"/>
<path d="M29.5 23.5C30.0523 23.5 30.5 23.0523 30.5 22.5C30.5 21.9477 30.0523 21.5 29.5 21.5C28.9477 21.5 28.5 21.9477 28.5 22.5C28.5 23.0523 28.9477 23.5 29.5 23.5Z" stroke="#62D5B4" stroke-width="3" stroke-miterlimit="10" stroke-linecap="square"/>
</svg>

<svg width="59" height="59" fill="none" xmlns="http://www.w3.org/2000/svg"><path d="M36.572 14.429a10 10 0 00-14.142 0m21.211-7.071a20 20 0 00-28.284 0M1.5 13.5a16 16 0 0116 16v2l4 9-4 2v3a6 6 0 01-6 6h-6v6m52-44a16 16 0 00-16 16v2l-4 9 4 2v3a6 6 0 006 6h6v6m-24-34a1 1 0 100-2 1 1 0 000 2z" stroke="#62D5B4" stroke-width="3" stroke-miterlimit="10" stroke-linecap="square"/></svg>
